X: 1
T: If We Hadn't Any Women In The World
R: barndance
M: 4/4
L: 1/8
K: Gmaj
Bc |: de dB GA BG | EA GE D3 A | BG Bd ge dB | {G}A2 AG A2 Bc |
de dB GA BG | EA GE D3 A | B d2 B AG AB |1 G2 {A}GF G2 Bc :|2 G2 {A}GF G GBd ||
e2 ef g2 gf | ed dB d2 (3Bcd | ed Bd ge dB | A2 AG A2 Bc |
de dB GA BG | EA GE D3 A | B d2 B AG AB |1 G2 {A}GF G GBd :|2 G2 {A}GF G2 z2 ||


Tune 1376	Setting 14732

